documenti/definizione_di_prodotto/images/server/classes/db/raw_ig_hashtag.svg

<?xml version="1.0" encoding="UTF-8" standalone="no"?>
<svg
   xmlns:dc="http://purl.org/dc/elements/1.1/"
   xmlns:cc="http://creativecommons.org/ns#"
   xmlns:rdf="http://www.w3.org/1999/02/22-rdf-syntax-ns#"
   xmlns:svg="http://www.w3.org/2000/svg"
   xmlns="http://www.w3.org/2000/svg"
   xmlns:xlink="http://www.w3.org/1999/xlink"
   xmlns:sodipodi="http://sodipodi.sourceforge.net/DTD/sodipodi-0.dtd"
   xmlns:inkscape="http://www.inkscape.org/namespaces/inkscape"
   style="fill-opacity:1; color-rendering:auto; color-interpolation:auto; stroke:black; text-rendering:auto; stroke-linecap:square; stroke-miterlimit:10; stroke-opacity:1; shape-rendering:auto; fill:black; stroke-dasharray:none; font-weight:normal; stroke-width:1; font-family:'Dialog'; font-style:normal; stroke-linejoin:miter; font-size:12; stroke-dashoffset:0; image-rendering:auto;"
   width="880"
   height="666"
   id="svg2"
   version="1.1"
   inkscape:version="0.91 r13725"
   sodipodi:docname="raw_ig_hashtag.svg">
  <metadata
     id="metadata70">
    <rdf:RDF>
      <cc:Work
         rdf:about="">
        <dc:format>image/svg+xml</dc:format>
        <dc:type
           rdf:resource="http://purl.org/dc/dcmitype/StillImage" />
      </cc:Work>
    </rdf:RDF>
  </metadata>
  <sodipodi:namedview
     pagecolor="#ffffff"
     bordercolor="#666666"
     borderopacity="1"
     objecttolerance="10"
     gridtolerance="10"
     guidetolerance="10"
     inkscape:pageopacity="0"
     inkscape:pageshadow="2"
     inkscape:window-width="640"
     inkscape:window-height="480"
     id="namedview68"
     showgrid="false"
     inkscape:zoom="0.35435435"
     inkscape:cx="440"
     inkscape:cy="333"
     inkscape:window-x="342"
     inkscape:window-y="201"
     inkscape:window-maximized="0"
     inkscape:current-layer="svg2" />
  <!--Generated by the Batik Graphics2D SVG Generator-->
  <defs
     id="genericDefs">
    <linearGradient
       inkscape:collect="always"
       xlink:href="#linearGradient1"
       id="linearGradient3398"
       gradientUnits="userSpaceOnUse"
       spreadMethod="pad"
       x1="200"
       y1="117"
       x2="377"
       y2="175" />
    <linearGradient
       inkscape:collect="always"
       xlink:href="#linearGradient1"
       id="linearGradient3400"
       gradientUnits="userSpaceOnUse"
       spreadMethod="pad"
       x1="200"
       y1="117"
       x2="377"
       y2="175" />
    <linearGradient
       inkscape:collect="always"
       xlink:href="#linearGradient1"
       id="linearGradient3402"
       gradientUnits="userSpaceOnUse"
       spreadMethod="pad"
       x1="200"
       y1="117"
       x2="377"
       y2="175" />
    <defs
       id="defs1">
      <linearGradient
         spreadMethod="pad"
         id="linearGradient1"
         y2="175"
         y1="117"
         x2="377"
         gradientUnits="userSpaceOnUse"
         x1="200">
        <stop
           id="stop9"
           offset="0%"
           style="stop-opacity:1; stop-color:white;" />
        <stop
           id="stop11"
           offset="100%"
           style="stop-opacity:1; stop-color:rgb(255,255,204);" />
      </linearGradient>
      <clipPath
         id="clipPath1"
         clipPathUnits="userSpaceOnUse">
        <path
           id="path14"
           d="M0 0 L880 0 L880 666 L0 666 L0 0 Z" />
      </clipPath>
      <clipPath
         id="clipPath2"
         clipPathUnits="userSpaceOnUse">
        <path
           id="path17"
           d="M0 0 L660 0 L660 499.5 L0 499.5 L0 0 Z" />
      </clipPath>
      <clipPath
         id="clipPath3"
         clipPathUnits="userSpaceOnUse">
        <path
           id="path20"
           d="M-20 -27 L640 -27 L640 472.5 L-20 472.5 L-20 -27 Z" />
      </clipPath>
      <clipPath
         id="clipPath4"
         clipPathUnits="userSpaceOnUse">
        <path
           id="path23"
           d="M-5 -5 L655 -5 L655 494.5 L-5 494.5 L-5 -5 Z" />
      </clipPath>
      <clipPath
         id="clipPath5"
         clipPathUnits="userSpaceOnUse">
        <path
           id="path26"
           d="M-244.5 -133 L415.5 -133 L415.5 366.5 L-244.5 366.5 L-244.5 -133 Z" />
      </clipPath>
    </defs>
  </defs>
  <g
     id="g46"
     style="font-weight:bold;font-family:sans-serif;fill:#c0c0c0;fill-opacity:0.50199998;stroke:#c0c0c0;stroke-width:2;stroke-opacity:0.50199998;shape-rendering:crispEdges;text-rendering:geometricPrecision"
     transform="matrix(1.3333,0,0,1.3333,6.6665,6.6665)">
    <rect
       clip-path="url(#clipPath4)"
       id="rect48"
       height="57.1875"
       style="stroke:none"
       width="177"
       y="117"
       x="200" />
    <rect
       clip-path="url(#clipPath4)"
       id="rect50"
       height="57.1875"
       style="fill:none"
       width="177"
       y="117"
       x="200" />
  </g>
  <g
     id="g52"
     style="font-weight:bold;font-family:sans-serif;fill:url(#linearGradient3400);stroke:url(#linearGradient3402);stroke-width:2;shape-rendering:crispEdges;text-rendering:geometricPrecision"
     transform="scale(1.3333,1.3333)">
    <rect
       clip-path="url(#clipPath2)"
       id="rect54"
       height="57.1875"
       style="fill:url(#linearGradient3398);stroke:none"
       width="177"
       y="117"
       x="200" />
    <rect
       clip-path="url(#clipPath2)"
       id="rect56"
       height="57.1875"
       style="fill:none;stroke:#000000"
       width="177"
       y="117"
       x="200" />
  </g>
  <g
     id="g58"
     transform="scale(1.3333,1.3333)"
     style="font-weight:bold;font-family:sans-serif;text-rendering:optimizeLegibility">
    <line
       clip-path="url(#clipPath2)"
       id="line60"
       y2="147.1328"
       style="fill:none"
       y1="147.1328"
       x2="377"
       x1="200" />
    <line
       clip-path="url(#clipPath2)"
       id="line62"
       y2="139.1328"
       style="fill:none"
       y1="139.1328"
       x2="377"
       x1="200" />
  </g>
  <g
     id="g64"
     transform="matrix(1.3333,0,0,1.3333,325.99185,177.3289)"
     style="font-weight:bold;font-family:sans-serif;text-rendering:optimizeLegibility">
    <path
       inkscape:connector-curvature="0"
       clip-path="url(#clipPath5)"
       id="path66"
       style="stroke:none"
       d="m 1.084,0 0,-8.6719 3.2461,0 q 2.6426,0 2.6426,2.1504 0,0.8027 -0.4483,1.4619 -0.4482,0.6592 -1.2334,1.0108 L 8.127,0 5.9297,0 3.7793,-3.5449 l -0.9961,0 0,3.5449 z m 1.6992,-4.7344 0.416,0 q 1.9629,0 1.9629,-1.5879 0,-1.1601 -1.7519,-1.1601 l -0.627,0 z m 9.7324,4.043 q -0.8672,0.8379 -1.8574,0.8379 -0.8437,0 -1.3711,-0.5156 -0.5273,-0.5157 -0.5273,-1.336 0,-1.0664 0.8525,-1.6435 0.8525,-0.5772 2.4404,-0.5772 l 0.4629,0 0,-0.5859 q 0,-1.002 -1.1426,-1.002 -1.0136,0 -2.0507,0.5742 l 0,-1.1953 q 1.1777,-0.4453 2.332,-0.4453 2.5254,0 2.5254,2.0098 l 0,2.8476 q 0,0.7559 0.4863,0.7559 0.0879,0 0.2285,-0.0234 l 0.041,0.9726 q -0.5507,0.1641 -0.9726,0.1641 -1.0664,0 -1.3711,-0.8379 z m 0,-0.9316 0,-1.3067 -0.4101,0 q -1.6817,0 -1.6817,1.0547 0,0.3574 0.2432,0.6006 0.2432,0.2432 0.6006,0.2432 0.6094,0 1.248,-0.5918 z M 17.5547,0 l -1.7871,-6.4336 1.6113,0 1.2656,4.5059 1.3477,-4.5059 1.5,0 1.2129,4.5293 1.3652,-4.5293 1.207,0 L 23.3672,0 21.7031,0 20.5312,-4.4121 19.2188,0 Z m 9.2168,0 0,-8.6719 1.8047,0 0,8.6719 z m 4.0254,1.998 0.1406,-1.2597 q 1.0723,0.4922 2.0449,0.4922 0.961,0 1.3887,-0.4102 0.4277,-0.4101 0.4277,-1.3301 l 0,-0.8789 Q 34.166,0 32.707,0 q -1.1484,0 -1.8222,-0.8584 -0.6739,-0.8584 -0.6739,-2.3232 0,-1.5411 0.7559,-2.4698 0.7559,-0.9287 2.0098,-0.9287 0.9843,0 1.8222,0.7969 l 0.1817,-0.6504 1.5586,0 0,4.9102 q 0,1.4707 -0.1787,2.1211 -0.1788,0.6503 -0.6944,1.1074 -0.8672,0.75 -2.4433,0.75 -1.1192,0 -2.4258,-0.4571 z m 4.0019,-4.3945 0,-2.373 q -0.6269,-0.709 -1.3125,-0.709 -0.6562,0 -1.0429,0.5976 -0.3868,0.5977 -0.3868,1.6055 0,1.8867 1.2129,1.8867 0.8379,0 1.5293,-1.0078 z M 38.666,0 l 0,-8.6719 1.8047,0 0,3.5215 3.5859,0 0,-3.5215 1.8047,0 0,8.6719 -1.8047,0 0,-3.9551 -3.5859,0 0,3.9551 z m 12.5156,-0.6914 q -0.8671,0.8379 -1.8574,0.8379 -0.8437,0 -1.3711,-0.5156 -0.5273,-0.5157 -0.5273,-1.336 0,-1.0664 0.8525,-1.6435 0.8526,-0.5772 2.4405,-0.5772 l 0.4628,0 0,-0.5859 q 0,-1.002 -1.1425,-1.002 -1.0137,0 -2.0508,0.5742 l 0,-1.1953 q 1.1777,-0.4453 2.332,-0.4453 2.5254,0 2.5254,2.0098 l 0,2.8476 q 0,0.7559 0.4863,0.7559 0.0879,0 0.2285,-0.0234 l 0.0411,0.9726 q -0.5508,0.1641 -0.9727,0.1641 -1.0664,0 -1.3711,-0.8379 z m 0,-0.9316 0,-1.3067 -0.4101,0 q -1.6817,0 -1.6817,1.0547 0,0.3574 0.2432,0.6006 0.2432,0.2432 0.6006,0.2432 0.6094,0 1.248,-0.5918 z m 3.7325,1.4179 0,-1.2715 q 1.289,0.5391 2.2031,0.5391 1.0664,0 1.0664,-0.7266 0,-0.4687 -0.8789,-0.8203 l -0.5859,-0.2344 q -0.9551,-0.3867 -1.3653,-0.832 -0.4101,-0.4453 -0.4101,-1.1015 0,-0.9141 0.6972,-1.4209 0.6973,-0.5069 1.9512,-0.5069 0.7852,0 1.8691,0.2285 l 0,1.2188 q -1.0429,-0.3633 -1.7285,-0.3633 -1.0781,0 -1.0781,0.668 0,0.4394 0.7969,0.7441 l 0.5039,0.1934 q 1.1308,0.4277 1.5732,0.8672 0.4424,0.4394 0.4424,1.1308 0,0.9082 -0.7529,1.4737 -0.753,0.5654 -1.96,0.5654 -1.1601,0 -2.3437,-0.3516 z M 61.8691,0 l 0,-9.252 1.7344,0 0,4.0313 q 0.8496,-1.3594 2.1914,-1.3594 0.8613,0 1.3594,0.5449 0.498,0.545 0.498,1.4883 l 0,4.5469 -1.7343,0 0,-4.1191 q 0,-1.0957 -0.7266,-1.0957 -0.8262,0 -1.5879,1.166 l 0,4.0488 z m 11.1973,-0.0352 q -0.6211,0.1817 -0.9785,0.1817 -2.2559,0 -2.2559,-2.1094 l 0,-3.3867 -0.7207,0 0,-1.084 0.7207,0 0,-1.084 1.7344,-0.1992 0,1.2832 1.377,0 0,1.084 -1.377,0 0,3.1582 q 0,1.1836 0.9668,1.1836 0.2227,0 0.5332,-0.082 z m 4.6992,-0.6562 q -0.8672,0.8379 -1.8574,0.8379 -0.8437,0 -1.3711,-0.5156 -0.5273,-0.5157 -0.5273,-1.336 0,-1.0664 0.8525,-1.6435 0.8525,-0.5772 2.4404,-0.5772 l 0.4629,0 0,-0.5859 q 0,-1.002 -1.1426,-1.002 -1.0136,0 -2.0507,0.5742 l 0,-1.1953 q 1.1777,-0.4453 2.332,-0.4453 2.5254,0 2.5254,2.0098 l 0,2.8476 q 0,0.7559 0.4863,0.7559 0.0879,0 0.2285,-0.0234 l 0.041,0.9726 q -0.5507,0.1641 -0.9726,0.1641 -1.0664,0 -1.3711,-0.8379 z m 0,-0.9316 0,-1.3067 -0.4101,0 q -1.6817,0 -1.6817,1.0547 0,0.3574 0.2432,0.6006 0.2432,0.2432 0.6006,0.2432 0.6094,0 1.248,-0.5918 z m 3.9492,3.621 0.1407,-1.2597 q 1.0722,0.4922 2.0449,0.4922 0.9609,0 1.3887,-0.4102 0.4277,-0.4101 0.4277,-1.3301 l 0,-0.8789 Q 85.084,0 83.625,0 q -1.1484,0 -1.8223,-0.8584 -0.6738,-0.8584 -0.6738,-2.3232 0,-1.5411 0.7559,-2.4698 0.7558,-0.9287 2.0097,-0.9287 0.9844,0 1.8223,0.7969 l 0.1816,-0.6504 1.5586,0 0,4.9102 q 0,1.4707 -0.1787,2.1211 -0.1787,0.6503 -0.6943,1.1074 -0.8672,0.75 -2.4434,0.75 -1.1191,0 -2.4258,-0.4571 z m 4.002,-4.3945 0,-2.373 q -0.627,-0.709 -1.3125,-0.709 -0.6563,0 -1.043,0.5976 -0.3867,0.5977 -0.3867,1.6055 0,1.8867 1.2129,1.8867 0.8379,0 1.5293,-1.0078 z" />
  </g>
</svg>

<?xml version="1.0" encoding="UTF-8"?>
<!DOCTYPE svg PUBLIC '-//W3C//DTD SVG 1.0//EN'
          'http://www.w3.org/TR/2001/REC-SVG-20010904/DTD/svg10.dtd'>
<svg xmlns:xlink="http://www.w3.org/1999/xlink" style="fill-opacity:1; color-rendering:auto; color-interpolation:auto; stroke:black; text-rendering:auto; stroke-linecap:square; stroke-miterlimit:10; stroke-opacity:1; shape-rendering:auto; fill:black; stroke-dasharray:none; font-weight:normal; stroke-width:1; font-family:&apos;Dialog&apos;; font-style:normal; stroke-linejoin:miter; font-size:12; stroke-dashoffset:0; image-rendering:auto;" width="880" height="666" xmlns="http://www.w3.org/2000/svg"
><!--Generated by the Batik Graphics2D SVG Generator--><defs id="genericDefs"
  /><g
  ><defs id="defs1"
    ><linearGradient x1="200" gradientUnits="userSpaceOnUse" x2="377" y1="117" y2="175" id="linearGradient1" spreadMethod="pad"
      ><stop style="stop-opacity:1; stop-color:white;" offset="0%"
        /><stop style="stop-opacity:1; stop-color:rgb(255,255,204);" offset="100%"
      /></linearGradient
      ><clipPath clipPathUnits="userSpaceOnUse" id="clipPath1"
      ><path d="M0 0 L880 0 L880 666 L0 666 L0 0 Z"
      /></clipPath
      ><clipPath clipPathUnits="userSpaceOnUse" id="clipPath2"
      ><path d="M0 0 L660 0 L660 499.5 L0 499.5 L0 0 Z"
      /></clipPath
      ><clipPath clipPathUnits="userSpaceOnUse" id="clipPath3"
      ><path d="M-20 -27 L640 -27 L640 472.5 L-20 472.5 L-20 -27 Z"
      /></clipPath
      ><clipPath clipPathUnits="userSpaceOnUse" id="clipPath4"
      ><path d="M-5 -5 L655 -5 L655 494.5 L-5 494.5 L-5 -5 Z"
      /></clipPath
      ><clipPath clipPathUnits="userSpaceOnUse" id="clipPath5"
      ><path d="M-244.5 -133 L415.5 -133 L415.5 366.5 L-244.5 366.5 L-244.5 -133 Z"
      /></clipPath
    ></defs
    ><g style="fill:white; stroke:white;"
    ><rect x="0" y="0" width="880" style="clip-path:url(#clipPath1); stroke:none;" height="666"
    /></g
    ><g style="shape-rendering:crispEdges; text-rendering:geometricPrecision;" transform="scale(1.3333,1.3333)"
    ><rect x="10" y="10" width="640" style="fill:none; clip-path:url(#clipPath2);" height="480"
      /><line x1="60" x2="60" y1="11" style="clip-path:url(#clipPath2); fill:none; text-rendering:optimizeLegibility; shape-rendering:auto;" y2="24.1328"
      /><line x1="60" x2="50" y1="24.1328" style="clip-path:url(#clipPath2); fill:none; text-rendering:optimizeLegibility; shape-rendering:auto;" y2="34.1328"
      /><line x1="50" x2="10" y1="34.1328" style="clip-path:url(#clipPath2); fill:none; text-rendering:optimizeLegibility; shape-rendering:auto;" y2="34.1328"
    /></g
    ><g style="text-rendering:optimizeLegibility; font-family:sans-serif; font-weight:bold;" transform="matrix(1.3333,0,0,1.3333,0,0) translate(20,27)"
    ><path d="M1.084 2.3145 L1.084 -6.4336 L2.8184 -6.4336 L2.8184 -5.2207 Q3.4863 -6.5801 4.9219 -6.5801 Q6.082 -6.5801 6.7471 -5.7305 Q7.4121 -4.8809 7.4121 -3.3926 Q7.4121 -1.7754 6.6621 -0.8145 Q5.9121 0.1465 4.6523 0.1465 Q3.6387 0.1465 2.8184 -0.6504 L2.8184 2.3145 ZM2.8184 -1.6816 Q3.4512 -0.9785 4.166 -0.9785 Q4.8047 -0.9785 5.1855 -1.5967 Q5.5664 -2.2148 5.5664 -3.2461 Q5.5664 -5.2207 4.2949 -5.2207 Q3.5273 -5.2207 2.8184 -4.2305 ZM9.0352 0 L9.0352 -9.252 L10.7695 -9.252 L10.7695 -3.4336 L10.8809 -3.4336 L13.1719 -6.4336 L14.6133 -6.4336 L12.498 -3.6797 L15.2754 0 L13.166 0 L10.8809 -3.2168 L10.7695 -3.2168 L10.7695 0 ZM16.6758 1.998 L16.8164 0.7383 Q17.8887 1.2305 18.8613 1.2305 Q19.8223 1.2305 20.25 0.8203 Q20.6777 0.4102 20.6777 -0.5098 L20.6777 -1.3887 Q20.0449 0 18.5859 0 Q17.4375 0 16.7637 -0.8584 Q16.0898 -1.7168 16.0898 -3.1816 Q16.0898 -4.7227 16.8457 -5.6514 Q17.6016 -6.5801 18.8555 -6.5801 Q19.8398 -6.5801 20.6777 -5.7832 L20.8594 -6.4336 L22.418 -6.4336 L22.418 -1.5234 Q22.418 -0.0527 22.2393 0.5977 Q22.0605 1.248 21.5449 1.7051 Q20.6777 2.4551 19.1016 2.4551 Q17.9824 2.4551 16.6758 1.998 ZM20.6777 -2.3965 L20.6777 -4.7695 Q20.0508 -5.4785 19.3652 -5.4785 Q18.709 -5.4785 18.3223 -4.8809 Q17.9355 -4.2832 17.9355 -3.2754 Q17.9355 -1.3887 19.1484 -1.3887 Q19.9863 -1.3887 20.6777 -2.3965 Z" style="clip-path:url(#clipPath3); stroke:none;"
    /></g
    ><g transform="matrix(1.3333,0,0,1.3333,0,0) translate(5,5)" style="fill-opacity:0.502; fill:rgb(192,192,192); text-rendering:geometricPrecision; font-family:sans-serif; shape-rendering:crispEdges; stroke:rgb(192,192,192); font-weight:bold; stroke-width:2; stroke-opacity:0.502;"
    ><rect x="200" y="117" width="177" style="clip-path:url(#clipPath4); stroke:none;" height="57.1875"
      /><rect x="200" y="117" width="177" style="fill:none; clip-path:url(#clipPath4);" height="57.1875"
    /></g
    ><g transform="matrix(1.3333,0,0,1.3333,0,0)" style="fill:url(#linearGradient1); text-rendering:geometricPrecision; font-family:sans-serif; shape-rendering:crispEdges; stroke:url(#linearGradient1); font-weight:bold; stroke-width:2;"
    ><rect x="200" y="117" width="177" style="clip-path:url(#clipPath2); stroke:none;" height="57.1875"
      /><rect x="200" y="117" width="177" style="clip-path:url(#clipPath2); fill:none; stroke:black;" height="57.1875"
    /></g
    ><g style="text-rendering:optimizeLegibility; font-family:sans-serif; font-weight:bold;" transform="matrix(1.3333,0,0,1.3333,0,0)"
    ><line x1="200" x2="377" y1="147.1328" style="fill:none; clip-path:url(#clipPath2);" y2="147.1328"
      /><line x1="200" x2="377" y1="139.1328" style="fill:none; clip-path:url(#clipPath2);" y2="139.1328"
    /></g
    ><g style="text-rendering:optimizeLegibility; font-family:sans-serif; font-weight:bold;" transform="matrix(1.3333,0,0,1.3333,0,0) translate(244.5,133)"
    ><path d="M1.084 0 L1.084 -8.6719 L4.3301 -8.6719 Q6.9727 -8.6719 6.9727 -6.5215 Q6.9727 -5.7188 6.5244 -5.0596 Q6.0762 -4.4004 5.291 -4.0488 L8.127 0 L5.9297 0 L3.7793 -3.5449 L2.7832 -3.5449 L2.7832 0 ZM2.7832 -4.7344 L3.1992 -4.7344 Q5.1621 -4.7344 5.1621 -6.3223 Q5.1621 -7.4824 3.4102 -7.4824 L2.7832 -7.4824 ZM12.5156 -0.6914 Q11.6484 0.1465 10.6582 0.1465 Q9.8145 0.1465 9.2871 -0.3691 Q8.7598 -0.8848 8.7598 -1.7051 Q8.7598 -2.7715 9.6123 -3.3486 Q10.4648 -3.9258 12.0527 -3.9258 L12.5156 -3.9258 L12.5156 -4.5117 Q12.5156 -5.5137 11.373 -5.5137 Q10.3594 -5.5137 9.3223 -4.9395 L9.3223 -6.1348 Q10.5 -6.5801 11.6543 -6.5801 Q14.1797 -6.5801 14.1797 -4.5703 L14.1797 -1.7227 Q14.1797 -0.9668 14.666 -0.9668 Q14.7539 -0.9668 14.8945 -0.9902 L14.9355 -0.0176 Q14.3848 0.1465 13.9629 0.1465 Q12.8965 0.1465 12.5918 -0.6914 ZM12.5156 -1.623 L12.5156 -2.9297 L12.1055 -2.9297 Q10.4238 -2.9297 10.4238 -1.875 Q10.4238 -1.5176 10.667 -1.2744 Q10.9102 -1.0312 11.2676 -1.0312 Q11.877 -1.0312 12.5156 -1.623 ZM17.5547 0 L15.7676 -6.4336 L17.3789 -6.4336 L18.6445 -1.9277 L19.9922 -6.4336 L21.4922 -6.4336 L22.7051 -1.9043 L24.0703 -6.4336 L25.2773 -6.4336 L23.3672 0 L21.7031 0 L20.5312 -4.4121 L19.2188 0 ZM26.7715 0 L26.7715 -8.6719 L28.5762 -8.6719 L28.5762 0 ZM30.7969 1.998 L30.9375 0.7383 Q32.0098 1.2305 32.9824 1.2305 Q33.9434 1.2305 34.3711 0.8203 Q34.7988 0.4102 34.7988 -0.5098 L34.7988 -1.3887 Q34.166 0 32.707 0 Q31.5586 0 30.8848 -0.8584 Q30.2109 -1.7168 30.2109 -3.1816 Q30.2109 -4.7227 30.9668 -5.6514 Q31.7227 -6.5801 32.9766 -6.5801 Q33.9609 -6.5801 34.7988 -5.7832 L34.9805 -6.4336 L36.5391 -6.4336 L36.5391 -1.5234 Q36.5391 -0.0527 36.3604 0.5977 Q36.1816 1.248 35.666 1.7051 Q34.7988 2.4551 33.2227 2.4551 Q32.1035 2.4551 30.7969 1.998 ZM34.7988 -2.3965 L34.7988 -4.7695 Q34.1719 -5.4785 33.4863 -5.4785 Q32.8301 -5.4785 32.4434 -4.8809 Q32.0566 -4.2832 32.0566 -3.2754 Q32.0566 -1.3887 33.2695 -1.3887 Q34.1074 -1.3887 34.7988 -2.3965 ZM38.666 0 L38.666 -8.6719 L40.4707 -8.6719 L40.4707 -5.1504 L44.0566 -5.1504 L44.0566 -8.6719 L45.8613 -8.6719 L45.8613 0 L44.0566 0 L44.0566 -3.9551 L40.4707 -3.9551 L40.4707 0 ZM51.1816 -0.6914 Q50.3145 0.1465 49.3242 0.1465 Q48.4805 0.1465 47.9531 -0.3691 Q47.4258 -0.8848 47.4258 -1.7051 Q47.4258 -2.7715 48.2783 -3.3486 Q49.1309 -3.9258 50.7188 -3.9258 L51.1816 -3.9258 L51.1816 -4.5117 Q51.1816 -5.5137 50.0391 -5.5137 Q49.0254 -5.5137 47.9883 -4.9395 L47.9883 -6.1348 Q49.166 -6.5801 50.3203 -6.5801 Q52.8457 -6.5801 52.8457 -4.5703 L52.8457 -1.7227 Q52.8457 -0.9668 53.332 -0.9668 Q53.4199 -0.9668 53.5605 -0.9902 L53.6016 -0.0176 Q53.0508 0.1465 52.6289 0.1465 Q51.5625 0.1465 51.2578 -0.6914 ZM51.1816 -1.623 L51.1816 -2.9297 L50.7715 -2.9297 Q49.0898 -2.9297 49.0898 -1.875 Q49.0898 -1.5176 49.333 -1.2744 Q49.5762 -1.0312 49.9336 -1.0312 Q50.543 -1.0312 51.1816 -1.623 ZM54.9141 -0.2051 L54.9141 -1.4766 Q56.2031 -0.9375 57.1172 -0.9375 Q58.1836 -0.9375 58.1836 -1.6641 Q58.1836 -2.1328 57.3047 -2.4844 L56.7188 -2.7188 Q55.7637 -3.1055 55.3535 -3.5508 Q54.9434 -3.9961 54.9434 -4.6523 Q54.9434 -5.5664 55.6406 -6.0732 Q56.3379 -6.5801 57.5918 -6.5801 Q58.377 -6.5801 59.4609 -6.3516 L59.4609 -5.1328 Q58.418 -5.4961 57.7324 -5.4961 Q56.6543 -5.4961 56.6543 -4.8281 Q56.6543 -4.3887 57.4512 -4.084 L57.9551 -3.8906 Q59.0859 -3.4629 59.5283 -3.0234 Q59.9707 -2.584 59.9707 -1.8926 Q59.9707 -0.9844 59.2178 -0.4189 Q58.4648 0.1465 57.2578 0.1465 Q56.0977 0.1465 54.9141 -0.2051 ZM61.8691 0 L61.8691 -9.252 L63.6035 -9.252 L63.6035 -5.2207 Q64.4531 -6.5801 65.7949 -6.5801 Q66.6562 -6.5801 67.1543 -6.0352 Q67.6523 -5.4902 67.6523 -4.5469 L67.6523 0 L65.918 0 L65.918 -4.1191 Q65.918 -5.2148 65.1914 -5.2148 Q64.3652 -5.2148 63.6035 -4.0488 L63.6035 0 ZM73.0664 -0.0352 Q72.4453 0.1465 72.0879 0.1465 Q69.832 0.1465 69.832 -1.9629 L69.832 -5.3496 L69.1113 -5.3496 L69.1113 -6.4336 L69.832 -6.4336 L69.832 -7.5176 L71.5664 -7.7168 L71.5664 -6.4336 L72.9434 -6.4336 L72.9434 -5.3496 L71.5664 -5.3496 L71.5664 -2.1914 Q71.5664 -1.0078 72.5332 -1.0078 Q72.7559 -1.0078 73.0664 -1.0898 ZM77.7656 -0.6914 Q76.8984 0.1465 75.9082 0.1465 Q75.0645 0.1465 74.5371 -0.3691 Q74.0098 -0.8848 74.0098 -1.7051 Q74.0098 -2.7715 74.8623 -3.3486 Q75.7148 -3.9258 77.3027 -3.9258 L77.7656 -3.9258 L77.7656 -4.5117 Q77.7656 -5.5137 76.623 -5.5137 Q75.6094 -5.5137 74.5723 -4.9395 L74.5723 -6.1348 Q75.75 -6.5801 76.9043 -6.5801 Q79.4297 -6.5801 79.4297 -4.5703 L79.4297 -1.7227 Q79.4297 -0.9668 79.916 -0.9668 Q80.0039 -0.9668 80.1445 -0.9902 L80.1855 -0.0176 Q79.6348 0.1465 79.2129 0.1465 Q78.1465 0.1465 77.8418 -0.6914 ZM77.7656 -1.623 L77.7656 -2.9297 L77.3555 -2.9297 Q75.6738 -2.9297 75.6738 -1.875 Q75.6738 -1.5176 75.917 -1.2744 Q76.1602 -1.0312 76.5176 -1.0312 Q77.127 -1.0312 77.7656 -1.623 ZM81.7148 1.998 L81.8555 0.7383 Q82.9277 1.2305 83.9004 1.2305 Q84.8613 1.2305 85.2891 0.8203 Q85.7168 0.4102 85.7168 -0.5098 L85.7168 -1.3887 Q85.084 0 83.625 0 Q82.4766 0 81.8027 -0.8584 Q81.1289 -1.7168 81.1289 -3.1816 Q81.1289 -4.7227 81.8848 -5.6514 Q82.6406 -6.5801 83.8945 -6.5801 Q84.8789 -6.5801 85.7168 -5.7832 L85.8984 -6.4336 L87.457 -6.4336 L87.457 -1.5234 Q87.457 -0.0527 87.2783 0.5977 Q87.0996 1.248 86.584 1.7051 Q85.7168 2.4551 84.1406 2.4551 Q83.0215 2.4551 81.7148 1.998 ZM85.7168 -2.3965 L85.7168 -4.7695 Q85.0898 -5.4785 84.4043 -5.4785 Q83.748 -5.4785 83.3613 -4.8809 Q82.9746 -4.2832 82.9746 -3.2754 Q82.9746 -1.3887 84.1875 -1.3887 Q85.0254 -1.3887 85.7168 -2.3965 Z" style="clip-path:url(#clipPath5); stroke:none;"
    /></g
  ></g
></svg
>
